X: 21672
Q: "Slow."
M: 3/4
L: 1/8
K: Dm
|:\
(dc)(BA)(GF) | F3 G (AG) | F2 (ED)(E^C) | D3 E D2 :|
|:\
(dc)(BA)(GF) | F3 G (AG) | F2 (ED)(E^C) | D3 E D2 :|


